X:525
T: "Neckerei"
N: Z1205
O: Europa, Mitteleuropa, Tirol
R: Liebes - Lied
M: 4/4
L: 1/16
K: D
F3G | A4F3GA4F3G | A4f2e2d4
A3A | A4g3fe4f3e | d12
F3G | A4F3GA4F3G | A4f2e2d4
A3A | A4g3fe4f3e | d12
A4 | G4e3dc4A4 | A4f3ed4
A2A2 | G2A2e2d2c4A4 | A4f3ed4
F3G | A2G2F2G2A2G2F2G2 | A4f3ed4
A3A | A4g3fe4f3e | d12

